icons/prolog.svg

<svg width="16" height="16" viewBox="0 0 16 16" fill="none" xmlns="http://www.w3.org/2000/svg">
<path d="M7 8.5C7 7.67157 6.32843 7.5 5.5 7.5C4.67157 7.5 4 7.67157 4 8.5C4 9.32843 4.67157 10 5.5 10C6.32843 10 7 9.32843 7 8.5Z" fill="#EC4B5E"/>
<path d="M12 8.5C12 7.67157 11.3284 7.5 10.5 7.5C9.67157 7.5 9 7.67157 9 8.5C9 9.32843 9.67157 10 10.5 10C11.3284 10 12 9.32843 12 8.5Z" fill="#EC4B5E"/>
<path d="M8 11.5L7 10L8 9.5L9 10L8 11.5Z" fill="#EC4B5E"/>
<path fill-rule="evenodd" clip-rule="evenodd" d="M2.50704 2.08511C3 3.5 3.2549 5.5 2.67606 6.68085C2.64543 6.74333 2.61554 6.8035 2.58646 6.86206C2.23424 7.57122 2 8.04285 2 9.48936C2 12.0945 4.1097 12.7965 5.86238 13.3797C6.80793 13.6943 7.64957 13.9744 8 14.5C8.35043 13.9744 9.19207 13.6943 10.1376 13.3797C11.8903 12.7965 14 12.0945 14 9.48936C14 8.29787 13.831 7.61702 13.1549 6.42553C12.4789 5.23404 13 3 13.2394 2C12.8451 2.39716 11.7183 3.34468 10.3662 3.95745C8.5 4.5 6.777 4.47137 5.46479 3.95745C4.95775 3.75887 3.65634 3.10638 2.50704 2.08511ZM5.5 11C5.89372 11 6.26617 10.909 6.59748 10.7469L8 12.5L9.40252 10.7469C9.73383 10.909 10.1063 11 10.5 11C11.8807 11 13 9.88071 13 8.5C13 7.11929 11.8807 6 10.5 6C9.11929 6 8 7.11929 8 8.5C8 7.11929 6.88071 6 5.5 6C4.11929 6 3 7.11929 3 8.5C3 9.88071 4.11929 11 5.5 11Z" fill="#EC4B5E"/>
</svg>

<svg xmlns="http://www.w3.org/2000/svg" width="16" height="16" fill="none"><path fill="#EC4B5E" d="M7 8.5c0-.828-.672-1-1.5-1S4 7.672 4 8.5a1.5 1.5 0 1 0 3 0ZM12 8.5c0-.828-.672-1-1.5-1S9 7.672 9 8.5a1.5 1.5 0 1 0 3 0ZM8 11.5 7 10l1-.5 1 .5-1 1.5Z"/><path fill="#EC4B5E" fill-rule="evenodd" d="M2.507 2.085C3 3.5 3.255 5.5 2.677 6.681c-.032.062-.061.122-.09.181C2.233 7.572 2 8.042 2 9.49c0 2.605 2.11 3.307 3.862 3.89.946.315 1.788.595 2.138 1.121.35-.526 1.192-.806 2.138-1.12C11.89 12.796 14 12.094 14 9.49c0-1.192-.169-1.873-.845-3.064C12.479 5.234 13 3 13.239 2c-.394.397-1.52 1.345-2.873 1.957-1.866.543-3.589.514-4.901 0-.507-.198-1.809-.85-2.958-1.872ZM5.5 11a2.49 2.49 0 0 0 1.097-.253L8 12.5l1.403-1.753A2.5 2.5 0 1 0 8 8.5 2.5 2.5 0 1 0 5.5 11Z" clip-rule="evenodd"/></svg>
